7-animation/3-js-animation/elastic.svg

<?xml version="1.0" encoding="UTF-8"?>
<svg width="233px" height="388px" viewBox="0 0 233 388" version="1.1" xmlns="http://www.w3.org/2000/svg" xmlns:xlink="http://www.w3.org/1999/xlink">
    <!-- Generator: sketchtool 61.2 (101010) - https://sketch.com -->
    <title>elastic.svg</title>
    <desc>Created with sketchtool.</desc>
    <g id="animation" stroke="none" stroke-width="1" fill="none" fill-rule="evenodd">
        <g id="elastic.svg">
            <path id="Line" d="M34,22.1600037 L41,36.1600037 L35,36.16 L35,366 L33,366 L33,36.16 L27,36.1600037 L34,22.1600037 Z" fill="#E8C48E" fill-rule="nonzero"></path>
            <path id="Line" d="M194.509995,187 L208.509995,194 L194.509995,201 L194.509,195 L23.5,195 L23.5,193 L194.509,193 L194.509995,187 Z" fill="#E8C48E" fill-rule="nonzero"></path>
            <path d="M34.8792035,192.69782 C38.3217915,192.697818 46.5362784,191.195974 53.4936997,193.038137 C62.0206897,195.295885 61.5154635,189.622956 87.0139157,194.339254 C100.114357,196.762365 100.423927,183.608251 115.161483,194.900075 C135.318831,210.34451 133.877092,159.362737 148.519851,194.677907 C151.940119,202.926853 155.398942,217.279032 158.65332,214.286779 C161.563227,211.611251 163.848094,194.907207 173.23036,150.175435 C177.841468,128.191083 188.232669,296.296579 192.347319,280.535848 C201.966406,243.690946 203.555755,39.1411041 207.337233,22.0938619" id="Path-747" stroke="#EE6B47" stroke-width="3"></path>
            <text id="0" font-family="PTMono-Bold, PT Mono" font-size="14" font-weight="bold" fill="#8A704D">
                <tspan x="17" y="212">0</tspan>
            </text>
            <text id="1" font-family="PTMono-Bold, PT Mono" font-size="14" font-weight="bold" fill="#8A704D">
                <tspan x="17" y="36">1</tspan>
            </text>
            <text id="-2" font-family="PTMono-Bold, PT Mono" font-size="14" font-weight="bold" fill="#8A704D">
                <tspan x="200" y="212">1</tspan>
            </text>
        </g>
    </g>
</svg>

<svg xmlns="http://www.w3.org/2000/svg" width="233" height="388" viewBox="0 0 233 388"><defs><style>@import url(https://fonts.googleapis.com/css?family=Open+Sans:bold,italic,bolditalic%7CPT+Mono);@font-face{font-family:&apos;PT Mono&apos;;font-weight:700;font-style:normal;src:local(&apos;PT MonoBold&apos;),url(/font/PTMonoBold.woff2) format(&apos;woff2&apos;),url(/font/PTMonoBold.woff) format(&apos;woff&apos;),url(/font/PTMonoBold.ttf) format(&apos;truetype&apos;)}</style></defs><g id="animation" fill="none" fill-rule="evenodd" stroke="none" stroke-width="1"><g id="elastic.svg"><path id="Line" fill="#E8C48E" fill-rule="nonzero" d="M34 22.16l7 14h-6V366h-2V36.16h-6l7-14z"/><path id="Line" fill="#E8C48E" fill-rule="nonzero" d="M194.51 187l14 7-14 7-.001-6H23.5v-2h171.009l.001-6z"/><path id="Path-747" stroke="#EE6B47" stroke-width="3" d="M34.88 192.698c3.442 0 11.656-1.502 18.614.34 8.527 2.258 8.021-3.415 33.52 1.301 13.1 2.423 13.41-10.73 28.147.561 20.158 15.445 18.716-35.537 33.359-.222 3.42 8.249 6.879 22.601 10.133 19.609 2.91-2.676 5.195-19.38 14.577-64.112 4.611-21.984 15.003 146.122 19.117 130.36 9.62-36.844 11.209-241.394 14.99-258.441"/><text id="0" fill="#8A704D" font-family="PTMono-Bold, PT Mono" font-size="14" font-weight="bold"><tspan x="17" y="212">0</tspan></text><text id="1" fill="#8A704D" font-family="PTMono-Bold, PT Mono" font-size="14" font-weight="bold"><tspan x="17" y="36">1</tspan></text><text id="-2" fill="#8A704D" font-family="PTMono-Bold, PT Mono" font-size="14" font-weight="bold"><tspan x="200" y="212">1</tspan></text></g></g></svg>
